dist/img/monitor.svg

<svg width="43" height="40" viewBox="0 0 43 40" fill="none" xmlns="http://www.w3.org/2000/svg">
<path fill-rule="evenodd" clip-rule="evenodd" d="M37.9525 37.7493H34.5265C34.2778 37.7493 34.0759 37.5474 34.0759 37.2987C34.0759 37.05 34.2778 36.8481 34.5265 36.8481H37.9525C38.2012 36.8481 38.4031 37.05 38.4031 37.2987C38.4031 37.5474 38.2012 37.7493 37.9525 37.7493Z" fill="#192331"/>
<path fill-rule="evenodd" clip-rule="evenodd" d="M36.2386 39.4614C35.9899 39.4614 35.7881 39.2596 35.7881 39.0108V35.5848C35.7881 35.3361 35.9899 35.1343 36.2386 35.1343C36.4873 35.1343 36.6892 35.3361 36.6892 35.5848V39.0108C36.6892 39.2596 36.4873 39.4614 36.2386 39.4614Z" fill="#192331"/>
<path fill-rule="evenodd" clip-rule="evenodd" d="M12.1549 0.901109C11.2923 0.901109 10.5906 1.60217 10.5906 2.46543C10.5906 3.32689 11.2923 4.02976 12.1549 4.02976C13.0174 4.02976 13.7192 3.32689 13.7192 2.46543C13.7192 1.60217 13.0174 0.901109 12.1549 0.901109ZM12.1549 4.93087C10.7955 4.93087 9.68945 3.82431 9.68945 2.46543C9.68945 1.10476 10.7955 0 12.1549 0C13.5143 0 14.6203 1.10476 14.6203 2.46543C14.6203 3.82431 13.5143 4.93087 12.1549 4.93087Z" fill="#33A853"/>
<path fill-rule="evenodd" clip-rule="evenodd" d="M31.4663 4.41726C31.2699 4.41726 31.0879 4.2875 31.0338 4.08746L30.6535 2.71597C30.5869 2.47628 30.7274 2.22757 30.9671 2.16269C31.2068 2.09601 31.4555 2.23658 31.5204 2.47628L31.9007 3.84596C31.9674 4.08566 31.8268 4.33436 31.5871 4.40104C31.5474 4.41186 31.5078 4.41726 31.4663 4.41726Z" fill="#192331"/>
<path fill-rule="evenodd" clip-rule="evenodd" d="M34.1282 4.69292C34.0652 4.69292 34.0003 4.68031 33.939 4.65147C33.7137 4.54694 33.6146 4.27841 33.7191 4.05313L34.3175 2.76275C34.422 2.53747 34.6905 2.43835 34.9158 2.54288C35.1411 2.6474 35.2402 2.91594 35.1357 3.14121L34.5374 4.4316C34.4617 4.5956 34.2977 4.69292 34.1282 4.69292Z" fill="#192331"/>
<path fill-rule="evenodd" clip-rule="evenodd" d="M34.7212 8H40.4811C41.1371 8 41.6705 8.52445 41.6705 9.17144V31.3297C41.6705 31.9767 41.1371 32.5029 40.4811 32.5029H1.6393C0.982756 32.5029 0.450562 31.9767 0.450562 31.3297V9.17144C0.450562 8.52445 0.982756 8 1.6393 8H34.7212Z" fill="#192331"/>
<path fill-rule="evenodd" clip-rule="evenodd" d="M40.481 32.9535H1.6393C0.735305 32.9535 0 32.2236 0 31.3297V9.17143C0 8.27753 0.735305 7.54944 1.6393 7.54944H30.367C30.6157 7.54944 30.8176 7.75129 30.8176 7.99999C30.8176 8.2487 30.6157 8.45055 30.367 8.45055H1.6393C1.23218 8.45055 0.901109 8.77314 0.901109 9.17143V31.3297C0.901109 31.728 1.23218 32.0524 1.6393 32.0524H40.481C40.8884 32.0524 41.22 31.728 41.22 31.3297V9.17143C41.22 8.77314 40.8884 8.45055 40.481 8.45055H34.7212C34.4725 8.45055 34.2706 8.2487 34.2706 7.99999C34.2706 7.75129 34.4725 7.54944 34.7212 7.54944H40.481C41.3858 7.54944 42.1211 8.27753 42.1211 9.17143V31.3297C42.1211 32.2236 41.3858 32.9535 40.481 32.9535Z" fill="#192331"/>
<path fill-rule="evenodd" clip-rule="evenodd" d="M34.7212 7.66125H40.4811C41.1371 7.66125 41.6705 8.19471 41.6705 8.85072V26.6855C41.6705 27.3415 41.1371 27.8731 40.4811 27.8731H1.6393C0.982756 27.8731 0.450562 27.3415 0.450562 26.6855V8.85072C0.450562 8.19471 0.982756 7.66125 1.6393 7.66125H34.7212Z" fill="#F3F6F5"/>
<path fill-rule="evenodd" clip-rule="evenodd" d="M40.481 28.3237H1.6393C0.735305 28.3237 0 27.5884 0 26.6855V8.85071C0 7.9478 0.735305 7.21069 1.6393 7.21069H30.367C30.6157 7.21069 30.8176 7.41254 30.8176 7.66125C30.8176 7.91176 30.6157 8.1118 30.367 8.1118H1.6393C1.23218 8.1118 0.901109 8.44341 0.901109 8.85071V26.6855C0.901109 27.0928 1.23218 27.4226 1.6393 27.4226H40.481C40.8884 27.4226 41.22 27.0928 41.22 26.6855V8.85071C41.22 8.44341 40.8884 8.1118 40.481 8.1118H34.7212C34.4725 8.1118 34.2706 7.91176 34.2706 7.66125C34.2706 7.41254 34.4725 7.21069 34.7212 7.21069H40.481C41.3858 7.21069 42.1211 7.9478 42.1211 8.85071V26.6855C42.1211 27.5884 41.3858 28.3237 40.481 28.3237Z" fill="#192331"/>
<path fill-rule="evenodd" clip-rule="evenodd" d="M17.1737 38.2305H24.947V30.4557H17.1737V38.2305Z" fill="#192331"/>
<path fill-rule="evenodd" clip-rule="evenodd" d="M17.6243 37.7799H24.4965V30.9062H17.6243V37.7799ZM24.947 38.681H17.1737C16.9248 38.681 16.7231 38.4792 16.7231 38.2304V30.4557C16.7231 30.207 16.9248 30.0051 17.1737 30.0051H24.947C25.1959 30.0051 25.3976 30.207 25.3976 30.4557V38.2304C25.3976 38.4792 25.1959 38.681 24.947 38.681Z" fill="#192331"/>
<path fill-rule="evenodd" clip-rule="evenodd" d="M26.3445 39.1622H15.7757C15.3176 39.1622 14.9462 38.7909 14.9462 38.3314V38.1277C14.9462 37.67 15.3176 37.2987 15.7757 37.2987H26.3445C26.804 37.2987 27.1753 37.67 27.1753 38.1277V38.3314C27.1753 38.7909 26.804 39.1622 26.3445 39.1622Z" fill="#192331"/>
<path fill-rule="evenodd" clip-rule="evenodd" d="M15.7757 37.7493C15.5668 37.7493 15.3967 37.9187 15.3967 38.1277V38.3314C15.3967 38.5404 15.5668 38.7116 15.7757 38.7116H26.3445C26.5535 38.7116 26.7247 38.5404 26.7247 38.3314V38.1277C26.7247 37.9187 26.5535 37.7493 26.3445 37.7493H15.7757ZM26.3445 39.6127H15.7757C15.0698 39.6127 14.4956 39.0378 14.4956 38.3314V38.1277C14.4956 37.4212 15.0698 36.8481 15.7757 36.8481H26.3445C27.0509 36.8481 27.6258 37.4212 27.6258 38.1277V38.3314C27.6258 39.0378 27.0509 39.6127 26.3445 39.6127Z" fill="#192331"/>
<rect x="3.66895" y="10.5826" width="34.6026" height="9.19131" rx="0.901109" fill="#33A853"/>
<circle cx="8.62499" cy="23.2883" r="1.89233" fill="#192331"/>
<path d="M12.4998 22.2972H31.6033" stroke="#192331" stroke-width="0.720887" stroke-linecap="round"/>
<path d="M12.4998 24.0993H16.1042" stroke="#192331" stroke-width="0.720887" stroke-linecap="round"/>
</svg>

<svg width="43" height="40" fill="none" xmlns="http://www.w3.org/2000/svg"><path fill-rule="evenodd" clip-rule="evenodd" d="M37.953 37.75h-3.427a.45.45 0 010-.902h3.426a.45.45 0 010 .901z" fill="#192331"/><path fill-rule="evenodd" clip-rule="evenodd" d="M36.239 39.461a.45.45 0 01-.45-.45v-3.426a.45.45 0 01.9 0v3.426a.45.45 0 01-.45.45z" fill="#192331"/><path fill-rule="evenodd" clip-rule="evenodd" d="M12.155.901a1.565 1.565 0 000 3.129 1.566 1.566 0 000-3.129zm0 4.03a2.469 2.469 0 01-2.466-2.466A2.467 2.467 0 0112.155 0a2.467 2.467 0 012.465 2.465 2.469 2.469 0 01-2.465 2.466z" fill="#33A853"/><path fill-rule="evenodd" clip-rule="evenodd" d="M31.466 4.417a.448.448 0 01-.432-.33l-.38-1.371a.448.448 0 01.313-.553.448.448 0 01.553.313l.38 1.37a.451.451 0 01-.434.571zm2.662.276a.452.452 0 01-.41-.64l.6-1.29a.451.451 0 01.818.378l-.599 1.29a.452.452 0 01-.409.262zM34.721 8h5.76c.656 0 1.19.524 1.19 1.171V31.33c0 .647-.534 1.173-1.19 1.173H1.64A1.182 1.182 0 01.451 31.33V9.17A1.18 1.18 0 011.639 8h33.082z" fill="#192331"/><path fill-rule="evenodd" clip-rule="evenodd" d="M40.481 32.953H1.639A1.633 1.633 0 010 31.33V9.17c0-.892.735-1.62 1.64-1.62h28.727a.45.45 0 010 .902H1.639a.73.73 0 00-.738.72V31.33c0 .398.331.722.738.722h38.842a.732.732 0 00.739-.722V9.17a.73.73 0 00-.739-.72h-5.76a.45.45 0 010-.902h5.76c.905 0 1.64.729 1.64 1.622v22.16c0 .894-.735 1.623-1.64 1.623z" fill="#192331"/><path fill-rule="evenodd" clip-rule="evenodd" d="M34.721 7.661h5.76c.656 0 1.19.534 1.19 1.19v17.835a1.19 1.19 0 01-1.19 1.187H1.64a1.188 1.188 0 01-1.188-1.188V8.852c0-.656.532-1.19 1.188-1.19h33.082z" fill="#F3F6F5"/><path fill-rule="evenodd" clip-rule="evenodd" d="M40.481 28.324H1.639A1.64 1.64 0 010 26.685V8.852c0-.903.735-1.64 1.64-1.64h28.727a.45.45 0 010 .9H1.639a.74.74 0 00-.738.74v17.834c0 .408.331.738.738.738h38.842c.407 0 .739-.33.739-.737V8.85a.74.74 0 00-.739-.74h-5.76a.45.45 0 110-.9h5.76c.905 0 1.64.737 1.64 1.64v17.834c0 .903-.735 1.639-1.64 1.639zM17.174 38.23h7.773v-7.774h-7.773v7.774z" fill="#192331"/><path fill-rule="evenodd" clip-rule="evenodd" d="M17.624 37.78h6.873v-6.874h-6.873v6.874zm7.323.901h-7.773a.45.45 0 01-.45-.45v-7.775a.45.45 0 01.45-.45h7.773a.45.45 0 01.45.45v7.774a.45.45 0 01-.45.451z" fill="#192331"/><path fill-rule="evenodd" clip-rule="evenodd" d="M26.345 39.162h-10.57a.83.83 0 01-.829-.83v-.204a.83.83 0 01.83-.83h10.569a.83.83 0 01.83.83v.203a.83.83 0 01-.83.831z" fill="#192331"/><path fill-rule="evenodd" clip-rule="evenodd" d="M15.776 37.75a.379.379 0 00-.38.378v.203c0 .21.17.38.38.38h10.569a.38.38 0 00.38-.38v-.203a.38.38 0 00-.38-.379h-10.57zm10.569 1.863h-10.57c-.705 0-1.28-.575-1.28-1.282v-.203c0-.707.575-1.28 1.28-1.28h10.57c.706 0 1.28.573 1.28 1.28v.203c0 .707-.574 1.282-1.28 1.282z" fill="#192331"/><rect x="3.669" y="10.583" width="34.603" height="9.191" rx=".901" fill="#33A853"/><circle cx="8.625" cy="23.288" r="1.892" fill="#192331"/><path d="M12.5 22.297h19.103M12.5 24.1h3.604" stroke="#192331" stroke-width=".721" stroke-linecap="round"/></svg>
